public/stickers/hack_in_the_club.svg

<svg width="489" height="519" fill="none" xmlns="http://www.w3.org/2000/svg"><g filter="url(#a)"><path d="M8 107.379c0-19.172 12.692-36.028 31.118-41.326l193.5-55.637a42.998 42.998 0 0 1 23.764 0l193.5 55.637C468.308 71.35 481 88.207 481 107.379V468c0 23.748-19.252 43-43 43H51c-23.748 0-43-19.252-43-43V107.379Z" fill="#fff"/><path d="M244 400V28s174.5 51.069 189 55.575c17.681 5.494 29 19.025 29 37.55v194.261c0 16.317-13.316 25.617-29 30.041C362 365.454 244 400 244 400Z" fill="#A6253A"/><path d="M244 400V28S69.5 79.069 55 83.575c-17.681 5.494-29 19.025-29 37.55v194.261c0 16.317 13.316 25.617 29 30.041C126 365.454 244 400 244 400Z" fill="#D3343E"/><path d="M324.978 153.61c-4 7.499-50 64.5-50 64.5s2-87.5-1.5-138c-.556-8.025-19.901-6.022-20.5 2-3.769 50.5-5.5 229-3 238s20.773 10 22.5.5c2-11-1-44.5-1-44.5s21 64 92 60c63-8.5 77.547-72.194 78-91 .193-8-3.945-10.5-6-3.5-6.315 21.518-23 64-72 72.5-56-4.5-75.5-63.5-75.5-63.5s42-55 47.5-85c1.834-10-3.832-24.501-10.5-12Z" fill="#D2DCDB"/><path fill-rule="evenodd" clip-rule="evenodd" d="M151.712 184.61c1.996-3 13.968-3.499 13.968 0 0 10.261-1.845 27.266-3.662 44.013-2.078 19.16-4.12 37.983-3.322 45.987.044.437.078.874.112 1.306.279 3.572.535 6.843 5.874 7.194 4.682.309 8.98-8.5 8.98-8.5l12.471 18.5s-6.485 14.5-18.458 14.5c-12.97 0-19.455-14.5-19.455-14.5s-14.142 33.5-34.919 0c-11.474-18.5-13.695-75.5 0-93 19.954-25.5 34.919-7.5 34.919-7.5s1.605-5.163 3.492-8ZM130.76 285.611c-7.981-6.77-9.403-21.674-8.979-36.5l.027-.958c.466-16.431.881-31.09 11.447-38.543 7.057-4.977 7.797 13.424 6.984 39.501-.998 31.999-6.391 39.118-9.479 36.5Z" fill="#fff"/><path d="M233.025 235.111c-1.995 5-17.958 4.126-17.958-3 0-10 1.295-20.407-1.497-33-1.995-9.001-8.481-11.001-13.968 0-3.99 7.999-7.338 23.614-6.485 39 1.145 20.656 3.492 47.994 16.462 50 16.961 2.622 34.421-32 34.421-32v39s-8.587 18.355-34.421 16c-16.462-1.501-26.439-18.001-34.421-30.001-4.587-11.358-3.991-24.288-3.991-42.999 0-33.271 20.952-79.571 40.408-75.501 29.249 6.12 32.547 44.694 21.45 72.501Z" fill="#FFFFFD"/><path d="M244 256.111v39l6-11.611 2.5-41-8.5 13.611Z" fill="#D2DCDB"/><path d="M36.01 125.124c-.455-6.205 13.894-14.025 15.085-7.902 5.446 28.017 6.855 64.135 6.175 100.741-.123 6.578-.245 13.171-.333 19.736 2.175-3.259 4.46-11.327 6-16.234 3.374-10.742 4.288-19.479 17.248-22.26 7.681-1.648 17.724 2.65 21.184 12.587 4.849 22.224 3.656 65.724 2.155 83.958-.941 11.432-16.647 15.38-17.952 9.637-1.1-4.844-1.302-20.827-1.522-38.371-.32-25.379-.68-52.304-3.865-55.224-6.488-5.948-14.538 42.159-20.168 71.95-.924 4.893-1.118 9.699-1.803 13.146.108 1.36.225 2.712.349 4.055.55 5.957-18.781 5.979-18.781 0 0-18.274 0-124.456-3.771-175.819Z" fill="#fff"/><path d="M444.529 463.236c0 3.219-.763 5.807-2.289 7.764-1.305 1.674-3.144 2.872-5.516 3.593-1.93.592-4.164.888-6.701.888h-8.048L407 475.26v-46.636c0-2.137.754-2.624 2.261-2.624h1.6c1.507 0 2.261.293 2.261 2.43v8.385h16.901c4.872.001 8.54 1.082 11.003 3.245 2.335 2.06 3.503 5.009 3.503 8.846v14.33Zm-6.122-.309V449.06c0-1.442-.626-2.601-1.876-3.476-1.452-1.03-3.585-1.545-6.398-1.545h-17.011v24.007l9.597.25h7.359c3.126 0 5.222-.283 6.288-.849 1.36-.721 2.041-2.228 2.041-4.52ZM51.97 425.404c0 1.313-.39 2.381-1.172 3.205-.781.824-1.687 1.236-2.744 1.236-1.057 0-1.986-.386-2.758-1.158-.864-.85-1.296-1.944-1.296-3.283s.41-2.408 1.227-3.207c.818-.798 1.76-1.197 2.827-1.197 1.048 0 1.963.399 2.744 1.197.781.799 1.172 1.868 1.172 3.207Zm-.855 46.39c0 2.137-.763 3.206-2.289 3.206H47.31c-1.526 0-2.289-1.069-2.289-3.206v-32.55c0-2.111.763-2.727 2.29-2.727h1.516c1.526 0 2.29.616 2.29 2.727v32.55Zm53.257 0c0 2.137-.763 3.206-2.289 3.206h-1.6c-1.526 0-2.289-1.069-2.289-3.206v-25.458c0-1.519-.67-2.989-2.013-3.53-1.085-.437-2.997-.656-5.736-.656h-9.983c-2.85 0-4.808.206-5.875.618-1.379.54-2.068 2.036-2.068 3.607v25.419c0 2.137-.754 3.206-2.261 3.206h-1.6c-1.508 0-2.261-1.069-2.261-3.206v-27.32c0-3.606 1.066-5.223 3.199-7.052 2.298-1.957 5.91-1.506 10.838-1.506h10.01c4.689 0 8.182-.386 10.48 1.481 2.299 1.867 3.448 4.164 3.448 7.769v26.628Zm29.844-35.46v-7.686c0-2.112.754-3.168 2.262-3.168h1.599c1.508 0 2.262 1.056 2.262 3.168v7.686h11.838c1.526 0 2.289 1.056 2.289 3.168v-.159c0 2.138-.763 2.431-2.289 2.431h-11.838l-.234 27.449 13.409.05c.972 0 1.571 5.727.063 5.727h-2.762c-.923 0-7.834-.061-12.429-.038-2.868.015-4.17-3.282-4.17-5.108v-33.52Zm70.077 35.46c0 2.137-.754 3.206-2.262 3.206h-1.599c-1.508 0-2.262-1.069-2.262-3.206v-22.983c0-2.009-.648-3.393-1.944-4.153-1.296-.759-2.419-1.139-5.305-1.139h-18.009v28.275c0 2.137-.753 3.206-2.261 3.206h-1.6c-1.507 0-2.261-1.069-2.261-3.206v-43.146c0-2.112.754-3.168 2.261-3.168h1.6c1.508 0 2.261 1.056 2.261 3.168v7.686h16.547c5.847 0 8.996.966 11.386 2.897 2.299 1.854 3.448 5.009 3.448 9.464v23.099Zm50.706-15.605c0 .927-.147 1.751-.441 2.472-.294.721-.717 1.081-1.269 1.081h-29.477c-.027 3.682-.505 6.122 3.432 7.795 2.667 1.133 10.238 2.169 18.266 1.442h3.803c1.508 0 3.037-.095 3.037 2.042v.773c0 2.137-.754 3.206-2.262 3.206h-3.916c-2.776 0-19.85-.316-21.771-.946-1.921-.631-3.415-1.513-4.481-2.646-2.262-2.498-3.393-5.408-3.393-8.73v-14.331c0-3.811 1.315-6.824 3.944-9.038 2.629-2.215 6.205-3.322 10.728-3.322h11.445c3.438 0 6.297.888 8.577 2.665 2.519 1.957 3.778 4.674 3.778 8.15v9.387Zm-6.926-3.902v-4.789c0-1.108-.818-2.093-2.454-2.955-1.636-.863-2.607-1.294-4.85-1.294h-8.881c-2.665 0-3.839.347-5.457 1.043-1.875.798-2.812 1.969-2.812 3.515v4.48h24.454ZM330 428.167v41.207c0 1.826 1.302 5.123 4.17 5.108 4.595-.024 4.209.038 5.132.038h2.762c1.507 0 .909-5.728-.064-5.728l-6.111-.049.233-40.576c0-2.111-.753-3.167-2.261-3.167h-1.6c-1.507 0-2.261 1.056-2.261 3.167ZM289.101 450.213c-.06-3.108-.101-5.242 3.369-6.751 2.606-1.133 10.003-2.169 17.848-1.442h3.715l.181.001c1.412.003 2.786.007 2.786-2.043v-.772c0-2.137-.737-3.206-2.209-3.206h-3.827c-2.712 0-19.394.316-21.271.946-1.877.631-3.337 1.513-4.379 2.646-2.209 2.498-3.314 5.407-3.314 8.729v14.067c0 3.322 1.131 6.232 3.392 8.73 1.066 1.133 2.56 2.015 4.482 2.646 1.921.63 18.995.946 21.771.946h3.916c1.508 0 2.261-1.069 2.261-3.206v-.773c0-2.05-1.406-2.046-2.851-2.042h-3.988c-8.029.727-15.599-.309-18.267-1.442-3.552-1.509-3.51-3.644-3.448-6.751.007-.337.014-.684.016-1.044l-.189-7.318.022-.878c-.003-.36-.009-.707-.016-1.043ZM358.289 435.871c-1.526 0-2.289 1.069-2.289 3.206v26.628c0 3.605 1.149 5.902 3.447 7.769s5.792 1.481 10.48 1.481h10.011c4.927 0 8.54.45 10.838-1.507 2.133-1.828 3.199-3.446 3.199-7.051v-27.32c0-2.137-.754-3.206-2.261-3.206h-1.6c-1.507 0-2.261 1.069-2.261 3.206v25.419c0 1.571-.69 3.066-2.069 3.607-1.066.412-3.024.618-5.874.618h-9.983c-2.739 0-4.651-.219-5.736-.657-1.342-.54-2.013-2.01-2.013-3.529v-25.458c0-2.137-.764-3.206-2.29-3.206h-1.599Z" fill="#D3343E" stroke="#D3343E" stroke-width=".96"/></g><defs><filter id="a" x="0" y=".742" width="489" height="518.258" filterUnits="userSpaceOnUse" color-interpolation-filters="sRGB"><feFlood flood-opacity="0" result="BackgroundImageFix"/><feColorMatrix in="SourceAlpha" values="0 0 0 0 0 0 0 0 0 0 0 0 0 0 0 0 0 0 127 0"/><feOffset/><feGaussianBlur stdDeviation="4"/><feColorMatrix values="0 0 0 0 0 0 0 0 0 0 0 0 0 0 0 0 0 0 0.5 0"/><feBlend in2="BackgroundImageFix" result="effect1_dropShadow"/><feBlend in="SourceGraphic" in2="effect1_dropShadow" result="shape"/></filter></defs></svg>

<svg width="489" height="519" viewBox="0 0 489 519" fill="none" xmlns="http://www.w3.org/2000/svg">
<g filter="url(#filter0_d)">
<path d="M8 107.379C8 88.2065 20.6923 71.3506 39.1178 66.0528L232.618 10.4164C240.382 8.18404 248.618 8.18404 256.382 10.4165L449.882 66.0528C468.308 71.3506 481 88.2065 481 107.379V468C481 491.748 461.748 511 438 511H51C27.2517 511 8 491.748 8 468L8 107.379Z" fill="white"/>
<path d="M244 400V28C244 28 418.5 79.0686 433 83.5747C450.681 89.0693 462 102.6 462 121.125V315.386C462 331.703 448.684 341.003 433 345.427C362 365.454 244 400 244 400Z" fill="#A6253A"/>
<path d="M244 400V28C244 28 69.5 79.0686 55 83.5747C37.319 89.0693 26 102.6 26 121.125V315.386C26 331.703 39.3157 341.003 55 345.427C126 365.454 244 400 244 400Z" fill="#D3343E"/>
<path d="M324.978 153.61C320.978 161.109 274.978 218.11 274.978 218.11C274.978 218.11 276.978 130.61 273.478 80.1099C272.922 72.0854 253.577 74.0885 252.978 82.1099C249.209 132.61 247.478 311.11 249.978 320.11C252.478 329.11 270.751 330.11 272.478 320.61C274.478 309.61 271.478 276.11 271.478 276.11C271.478 276.11 292.478 340.11 363.478 336.11C426.478 327.61 441.025 263.916 441.478 245.11C441.671 237.11 437.533 234.61 435.478 241.61C429.163 263.128 412.478 305.61 363.478 314.11C307.478 309.61 287.978 250.61 287.978 250.61C287.978 250.61 329.978 195.61 335.478 165.61C337.312 155.61 331.646 141.109 324.978 153.61Z" fill="#D2DCDB"/>
<path fill-rule="evenodd" clip-rule="evenodd" d="M151.712 184.61C153.708 181.61 165.68 181.111 165.68 184.61C165.68 194.871 163.835 211.876 162.018 228.623C159.94 247.783 157.898 266.606 158.696 274.61C158.74 275.047 158.774 275.484 158.808 275.916C159.087 279.488 159.343 282.759 164.682 283.11C169.364 283.419 173.662 274.61 173.662 274.61L186.133 293.11C186.133 293.11 179.648 307.61 167.675 307.61C154.705 307.61 148.22 293.11 148.22 293.11C148.22 293.11 134.078 326.61 113.301 293.11C101.827 274.61 99.6056 217.61 113.301 200.11C133.255 174.61 148.22 192.61 148.22 192.61C148.22 192.61 149.825 187.447 151.712 184.61ZM130.76 285.611C122.779 278.841 121.357 263.937 121.781 249.111C121.79 248.791 121.799 248.472 121.808 248.153C122.274 231.722 122.689 217.063 133.255 209.61C140.312 204.633 141.052 223.034 140.239 249.111C139.241 281.11 133.848 288.229 130.76 285.611Z" fill="white"/>
<path d="M233.025 235.111C231.03 240.111 215.067 239.237 215.067 232.111C215.067 222.111 216.362 211.704 213.57 199.111C211.575 190.11 205.089 188.11 199.602 199.111C195.612 207.11 192.264 222.725 193.117 238.111C194.262 258.767 196.609 286.105 209.579 288.111C226.54 290.733 244 256.111 244 256.111V295.111C244 295.111 235.413 313.466 209.579 311.111C193.117 309.61 183.14 293.11 175.158 281.11C170.571 269.752 171.167 256.822 171.167 238.111C171.167 204.84 192.119 158.54 211.575 162.61C240.824 168.73 244.122 207.304 233.025 235.111Z" fill="#FFFFFD"/>
<path d="M244 256.111V295.111L250 283.5L252.5 242.5L244 256.111Z" fill="#D2DCDB"/>
<path d="M36.0106 125.124C35.555 118.919 49.9043 111.099 51.0946 117.222C56.541 145.239 57.9502 181.357 57.2695 217.963C57.1471 224.541 57.0245 231.134 56.937 237.699C59.1123 234.44 61.3964 226.372 62.9373 221.465C66.3113 210.723 67.2245 201.986 80.1851 199.205C87.8664 197.557 97.9089 201.855 101.369 211.792C106.218 234.016 105.025 277.516 103.524 295.75C102.583 307.182 86.8772 311.13 85.5723 305.387C84.4713 300.543 84.2703 284.56 84.0497 267.016C83.7306 241.637 83.3704 214.712 80.1851 211.792C73.6971 205.844 65.6473 253.951 60.0175 283.742C59.093 288.635 58.899 293.441 58.214 296.888C58.3225 298.248 58.4386 299.6 58.5627 300.943C59.1134 306.9 39.7816 306.922 39.7816 300.943C39.7816 282.669 39.7816 176.487 36.0106 125.124Z" fill="white"/>
<path d="M444.529 463.236C444.529 466.455 443.766 469.043 442.24 471C440.935 472.674 439.096 473.872 436.724 474.593C434.794 475.185 432.56 475.481 430.023 475.481H421.975L407 475.26V428.624C407 426.487 407.754 426 409.261 426H410.861C412.368 426 413.122 426.293 413.122 428.43V436.815H430.023C434.895 436.816 438.563 437.897 441.026 440.06C443.361 442.12 444.529 445.069 444.529 448.906V463.236ZM438.407 462.927V449.06C438.407 447.618 437.781 446.459 436.531 445.584C435.079 444.554 432.946 444.039 430.133 444.039H413.122V468.046L422.719 468.296H430.078C433.204 468.296 435.3 468.013 436.366 467.447C437.726 466.726 438.407 465.219 438.407 462.927Z" fill="#D3343E" stroke="#D3343E" stroke-width="0.96012"/>
<path d="M51.9701 425.404C51.9701 426.717 51.5794 427.785 50.798 428.609C50.0166 429.433 49.1112 429.845 48.054 429.845C46.9969 429.845 46.0683 429.459 45.2962 428.687C44.4321 427.837 44 426.743 44 425.404C44 424.065 44.4091 422.996 45.2273 422.197C46.0454 421.399 46.9876 421 48.054 421C49.102 421 50.0166 421.399 50.798 422.197C51.5794 422.996 51.9701 424.065 51.9701 425.404ZM51.1152 471.794C51.1152 473.931 50.3522 475 48.8263 475H47.3094C45.7834 475 45.0204 473.931 45.0204 471.794V439.244C45.0204 437.133 45.7834 436.517 47.3094 436.517H48.8263C50.3522 436.517 51.1152 437.133 51.1152 439.244V471.794ZM104.372 471.794C104.372 473.931 103.609 475 102.083 475H100.483C98.9572 475 98.1941 473.931 98.1942 471.794V446.336C98.1941 444.817 97.5231 443.347 96.1809 442.806C95.0962 442.369 93.1841 442.15 90.4447 442.15H80.4615C77.6117 442.15 75.6536 442.356 74.5873 442.768C73.2084 443.308 72.519 444.804 72.519 446.375V471.794C72.519 473.931 71.7651 475 70.2576 475H68.658C67.1504 475 66.3966 473.931 66.3966 471.794V444.474C66.3966 440.868 67.4629 439.251 69.5956 437.422C71.8938 435.465 75.5066 435.916 80.4339 435.916H90.4447C95.133 435.916 98.6262 435.53 100.924 437.397C103.223 439.264 104.372 441.561 104.372 445.166V471.794ZM134.216 436.334V428.648C134.216 426.536 134.97 425.48 136.478 425.48H138.077C139.585 425.48 140.339 426.536 140.339 428.648V436.334H152.177C153.703 436.334 154.466 437.39 154.466 439.502V439.343C154.466 441.481 153.703 441.774 152.177 441.774H140.339L140.105 469.223L153.514 469.273C154.486 469.273 155.085 475 153.577 475H150.815C149.892 475 142.981 474.939 138.386 474.962C135.518 474.977 134.216 471.68 134.216 469.854V443.519V436.334ZM204.293 471.794C204.293 473.931 203.539 475 202.031 475H200.432C198.924 475 198.17 473.931 198.17 471.794V448.811C198.17 446.802 197.522 445.418 196.226 444.658C194.93 443.899 193.807 443.519 190.921 443.519H172.912V471.794C172.912 473.931 172.159 475 170.651 475H169.051C167.544 475 166.79 473.931 166.79 471.794V428.648C166.79 426.536 167.544 425.48 169.051 425.48H170.651C172.159 425.48 172.912 426.536 172.912 428.648V436.334H189.459C195.306 436.334 198.455 437.3 200.845 439.231C203.144 441.085 204.293 444.24 204.293 448.695V471.794ZM254.999 456.189C254.999 457.116 254.852 457.94 254.558 458.661C254.264 459.382 253.841 459.742 253.289 459.742H223.812C223.785 463.424 223.307 465.864 227.244 467.537C229.911 468.67 237.482 469.706 245.51 468.979H249.313C250.821 468.979 252.35 468.884 252.35 471.021V471.794C252.35 473.931 251.596 475 250.088 475H246.172C243.396 475 226.322 474.684 224.401 474.054C222.48 473.423 220.986 472.541 219.92 471.408C217.658 468.91 216.527 466 216.527 462.678V448.347C216.527 444.536 217.842 441.523 220.471 439.309C223.1 437.094 226.676 435.987 231.199 435.987H242.644C246.082 435.987 248.941 436.875 251.221 438.652C253.74 440.609 254.999 443.326 254.999 446.802V456.189ZM248.073 452.287V447.498C248.073 446.39 247.255 445.405 245.619 444.543C243.983 443.68 243.012 443.249 240.769 443.249H231.888C229.223 443.249 228.049 443.596 226.431 444.292C224.556 445.09 223.619 446.261 223.619 447.807V452.287H248.073Z" fill="#D3343E" stroke="#D3343E" stroke-width="0.96012"/>
<path d="M330 428.167V435.854V443.039V469.374C330 471.2 331.302 474.497 334.17 474.482C338.765 474.458 338.379 474.52 339.302 474.52H342.064C343.571 474.52 342.973 468.792 342 468.792L335.889 468.743L336.122 428.167C336.122 426.056 335.369 425 333.861 425H332.261C330.754 425 330 426.056 330 428.167Z" fill="#D3343E" stroke="#D3343E" stroke-width="0.96012"/>
<path d="M289.101 450.213C289.041 447.105 289 444.971 292.47 443.462C295.076 442.329 302.473 441.293 310.318 442.02H314.033C314.093 442.02 314.154 442.02 314.214 442.021C315.626 442.024 317 442.028 317 439.978V439.206C317 437.069 316.263 436 314.791 436H310.964C308.252 436 291.57 436.316 289.693 436.946C287.816 437.577 286.356 438.459 285.314 439.592C283.105 442.09 282 444.999 282 448.321V462.388C282 465.71 283.131 468.62 285.392 471.118C286.458 472.251 287.952 473.133 289.874 473.764C291.795 474.394 308.869 474.71 311.645 474.71H315.561C317.069 474.71 317.822 473.641 317.822 471.504V470.731C317.822 468.681 316.416 468.685 314.971 468.689C314.909 468.689 314.847 468.689 314.786 468.689H310.983C302.954 469.416 295.384 468.38 292.716 467.247C289.164 465.738 289.206 463.603 289.268 460.496C289.275 460.159 289.282 459.812 289.284 459.452L289.095 452.134L289.117 451.256C289.114 450.896 289.108 450.549 289.101 450.213Z" fill="#D3343E" stroke="#D3343E" stroke-width="0.96012"/>
<path d="M358.289 435.871C356.763 435.871 356 436.94 356 439.077L356 465.705C356 469.31 357.149 471.607 359.447 473.474C361.745 475.341 365.239 474.955 369.927 474.955L379.938 474.955C384.865 474.955 388.478 475.405 390.776 473.448C392.909 471.62 393.975 470.002 393.975 466.397L393.975 439.077C393.975 436.94 393.221 435.871 391.714 435.871L390.114 435.871C388.607 435.871 387.853 436.94 387.853 439.077L387.853 464.496C387.853 466.067 387.163 467.562 385.784 468.103C384.718 468.515 382.76 468.721 379.91 468.721L369.927 468.721C367.188 468.721 365.276 468.502 364.191 468.064C362.849 467.524 362.178 466.054 362.178 464.535L362.178 439.077C362.178 436.94 361.414 435.871 359.888 435.871L358.289 435.871Z" fill="#D3343E" stroke="#D3343E" stroke-width="0.96012"/>
</g>
<defs>
<filter id="filter0_d" x="0" y="0.742188" width="489" height="518.258" filterUnits="userSpaceOnUse" color-interpolation-filters="sRGB">
<feFlood flood-opacity="0" result="BackgroundImageFix"/>
<feColorMatrix in="SourceAlpha" type="matrix" values="0 0 0 0 0 0 0 0 0 0 0 0 0 0 0 0 0 0 127 0"/>
<feOffset/>
<feGaussianBlur stdDeviation="4"/>
<feColorMatrix type="matrix" values="0 0 0 0 0 0 0 0 0 0 0 0 0 0 0 0 0 0 0.5 0"/>
<feBlend mode="normal" in2="BackgroundImageFix" result="effect1_dropShadow"/>
<feBlend mode="normal" in="SourceGraphic" in2="effect1_dropShadow" result="shape"/>
</filter>
</defs>
</svg>
